X: 1
T: Le Galant
C: Richard Forest
R: jig
M: 6/8
L: 1/8
Z: Contributed 2016-03-08 23:28:16 by debby knight debbyjk@aol.com
K: Cmaj
gg|: "C"g2f e2 d | c3 cBc | "G" d3 d^cd |"C"ede cef |
"C" g2 f e2d |"C"c3 cBc | "G" d2g GAB|1"C"c3 cgg :|	[2"C"c3 "E7"B3 :||
|:"Am"	AEE CEE|AGA cBA|"E7"B3BAB|"E"efe dcB |
"Am"c2A d2B |"Am"e2c "Dm"fed | "Dm"cBA "E7"^GAB|1 "Am"A3 AcB :||\
[2 "Am"A3-A ||
